public/cloud-icons/azure/management/application-insights-event.svg

<svg xmlns="http://www.w3.org/2000/svg" xml:space="preserve" width="75.593" height="68.028" style="font-size:12px;overflow:visible;color-interpolation-filters:sRGB;fill-rule:evenodd;stroke-linecap:square;stroke-miterlimit:3" viewBox="0 0 56.695 51.021"><g transform="translate(-12.24 -12.243)"><title>Page-1</title><g transform="translate(12.24 -34.016)"><title>Application Insights Event.14308</title><title>Sheet.14309</title><g transform="translate(0 -12.201)"><title>Sheet.14310</title><path d="M0 95.61c0 .92.77 1.67 1.73 1.67h44.16c.96 0 1.73-.75 1.73-1.67V66.2H0Z" style="fill:#59b4d9;stroke:none;stroke-width:12.23999977;stroke-linecap:butt"/></g><g transform="translate(0 -41.04)"><title>Sheet.14311</title><path d="M45.89 87.3H1.73c-.96 0-1.73.74-1.73 1.67v8.31h47.62v-8.31c0-.93-.77-1.67-1.73-1.67" style="fill:#a0a1a2;stroke:none;stroke-width:12.23999977;stroke-linecap:butt"/></g><g transform="translate(.006 -12.201)"><title>Sheet.14312</title><path d="M1.73 58.46c-.95 0-1.73.74-1.73 1.67v35.48c0 .92.78 1.67 1.73 1.67h3.93l31.92-38.82Z" style="fill:#fff;fill-opacity:.2;stroke:none;stroke-width:12.23999977;stroke-linecap:butt"/></g><g transform="translate(12.472 -44.368)"><title>Sheet.14313</title><path d="M0 93.952h30.614v3.328H0z" style="fill:#fff;stroke:none;stroke-width:12.23999977;stroke-linecap:butt"/></g><g transform="translate(2.381 -42.26)"><title>Sheet.14314</title><path d="M7.71 93.51a3.855 3.771 0 0 1-7.71 0 3.855 3.771 0 1 1 7.71 0" style="fill:#59b4d9;stroke:none;stroke-width:12.23999977;stroke-linecap:butt"/></g><g transform="translate(3.402 -43.26)"><title>Sheet.14315</title><path d="m2.27 95.06 2.27 2.22H2.83L0 94.51l2.83-2.78h1.71l-2.27 2.22H6.8v1.11z" style="fill:#fff;stroke:none;stroke-width:12.23999977;stroke-linecap:butt"/></g><g transform="translate(33.315)"><title>Sheet.14316</title><path d="m2.97 95.06 6.8-13.31H0L9.07 64h13.17l-10.2 13.31h11.34L4.1 96.17l-2.27 1.11Z" style="fill:#ff8c00;stroke:none;stroke-width:12.23999977;stroke-linecap:butt"/></g><g transform="translate(32.882 -14.42)"><title>Sheet.14317</title><path d="M0 96.17h10.205v1.109H0z" style="fill:#ff8c00;fill-opacity:.75;stroke:none;stroke-width:12.23999977;stroke-linecap:butt"/></g><g transform="translate(32.181)"><title>Sheet.14318</title><path d="m2.97 95.06 6.8-13.31H0L9.07 64h13.17l-10.2 13.31h11.34L4.1 96.17l-2.27 1.11Z" style="fill:#fcd116;stroke:none;stroke-width:12.23999977;stroke-linecap:butt"/></g></g></g></svg>

<?xml version="1.0" encoding="UTF-8" standalone="no"?>
<!-- Generated by Microsoft Visio, SVG Export Application Insights Event.svg Page-1 -->

<svg
   xmlns:dc="http://purl.org/dc/elements/1.1/"
   xmlns:cc="http://creativecommons.org/ns#"
   xmlns:rdf="http://www.w3.org/1999/02/22-rdf-syntax-ns#"
   xmlns:svg="http://www.w3.org/2000/svg"
   xmlns="http://www.w3.org/2000/svg"
   xmlns:sodipodi="http://sodipodi.sourceforge.net/DTD/sodipodi-0.dtd"
   xmlns:inkscape="http://www.inkscape.org/namespaces/inkscape"
   width="0.78742927in"
   height="0.708628in"
   viewBox="0 0 56.694975 51.021322"
   xml:space="preserve"
   class="st8"
   version="1.1"
   id="svg59"
   sodipodi:docname="Application Insights Event.svg"
   style="font-size:12px;overflow:visible;color-interpolation-filters:sRGB;fill:none;fill-rule:evenodd;stroke-linecap:square;stroke-miterlimit:3"
   inkscape:version="0.92.5 (2060ec1f9f, 2020-04-08)"><metadata
   id="metadata65"><rdf:RDF><cc:Work
       rdf:about=""><dc:format>image/svg+xml</dc:format><dc:type
         rdf:resource="http://purl.org/dc/dcmitype/StillImage" /></cc:Work></rdf:RDF></metadata><defs
   id="defs63" /><sodipodi:namedview
   pagecolor="#ffffff"
   bordercolor="#666666"
   borderopacity="1"
   objecttolerance="10"
   gridtolerance="10"
   guidetolerance="10"
   inkscape:pageopacity="0"
   inkscape:pageshadow="2"
   inkscape:window-width="640"
   inkscape:window-height="480"
   id="namedview61"
   showgrid="false"
   inkscape:zoom="1.8195051"
   inkscape:cx="37.795228"
   inkscape:cy="19.499465"
   inkscape:window-x="0"
   inkscape:window-y="0"
   inkscape:window-maximized="0"
   inkscape:current-layer="svg59" />
	<style
   type="text/css"
   id="style2">
	<![CDATA[
		.st1 {fill:#59b4d9;stroke:none;stroke-linecap:butt;stroke-width:12.24}
		.st2 {fill:#a0a1a2;stroke:none;stroke-linecap:butt;stroke-width:12.24}
		.st3 {fill:#ffffff;fill-opacity:0.2;stroke:none;stroke-linecap:butt;stroke-width:12.24}
		.st4 {fill:#ffffff;stroke:none;stroke-linecap:butt;stroke-width:12.24}
		.st5 {fill:#ff8c00;stroke:none;stroke-linecap:butt;stroke-width:12.24}
		.st6 {fill:#ff8c00;fill-opacity:0.75;stroke:none;stroke-linecap:butt;stroke-width:12.24}
		.st7 {fill:#fcd116;stroke:none;stroke-linecap:butt;stroke-width:12.24}
		.st8 {fill:none;fill-rule:evenodd;font-size:12px;overflow:visible;stroke-linecap:square;stroke-miterlimit:3}
	]]>
	</style>

	<g
   id="g57"
   transform="translate(-12.24,-12.243)">
		<title
   id="title4">Page-1</title>
		<g
   id="group14308-1"
   transform="translate(12.24,-34.0157)">
			<title
   id="title6">Application Insights Event.14308</title>
			<g
   id="group14309-2">
				<title
   id="title8">Sheet.14309</title>
				<g
   id="shape14310-3"
   transform="translate(0,-12.2013)">
					<title
   id="title10">Sheet.14310</title>
					<path
   d="m 0,95.61 c 0,0.92 0.77,1.67 1.73,1.67 h 44.16 c 0.96,0 1.73,-0.75 1.73,-1.67 V 66.2 H 0 Z"
   class="st1"
   id="path12"
   inkscape:connector-curvature="0"
   style="fill:#59b4d9;stroke:none;stroke-width:12.23999977;stroke-linecap:butt" />
				</g>
				<g
   id="shape14311-5"
   transform="translate(0,-41.0407)">
					<title
   id="title15">Sheet.14311</title>
					<path
   d="M 45.89,87.3 H 1.73 C 0.77,87.3 0,88.04 0,88.97 v 8.31 h 47.62 v -8.31 c 0,-0.93 -0.77,-1.67 -1.73,-1.67 z"
   class="st2"
   id="path17"
   inkscape:connector-curvature="0"
   style="fill:#a0a1a2;stroke:none;stroke-width:12.23999977;stroke-linecap:butt" />
				</g>
				<g
   id="shape14312-7"
   transform="translate(0.00566929,-12.2013)">
					<title
   id="title20">Sheet.14312</title>
					<path
   d="M 1.73,58.46 C 0.78,58.46 0,59.2 0,60.13 v 35.48 c 0,0.92 0.78,1.67 1.73,1.67 H 5.66 L 37.58,58.46 Z"
   class="st3"
   id="path22"
   inkscape:connector-curvature="0"
   style="fill:#ffffff;fill-opacity:0.2;stroke:none;stroke-width:12.23999977;stroke-linecap:butt" />
				</g>
				<g
   id="shape14313-9"
   transform="translate(12.4724,-44.3684)">
					<title
   id="title25">Sheet.14313</title>
					<rect
   x="0"
   y="93.951698"
   width="30.614201"
   height="3.32763"
   class="st4"
   id="rect27"
   style="fill:#ffffff;stroke:none;stroke-width:12.23999977;stroke-linecap:butt" />
				</g>
				<g
   id="shape14314-11"
   transform="translate(2.3811,-42.2609)">
					<title
   id="title30">Sheet.14314</title>
					<path
   d="m 7.71,93.51 a 3.85512,3.77131 0 0 1 -7.71,0 3.85512,3.77131 0 1 1 7.71,0 z"
   class="st1"
   id="path32"
   inkscape:connector-curvature="0"
   style="fill:#59b4d9;stroke:none;stroke-width:12.23999977;stroke-linecap:butt" />
				</g>
				<g
   id="shape14315-13"
   transform="translate(3.40157,-43.2592)">
					<title
   id="title35">Sheet.14315</title>
					<path
   d="m 2.27,95.06 2.27,2.22 H 2.83 L 0,94.51 2.83,91.73 H 4.54 L 2.27,93.95 H 6.8 v 1.11 z"
   class="st4"
   id="path37"
   inkscape:connector-curvature="0"
   style="fill:#ffffff;stroke:none;stroke-width:12.23999977;stroke-linecap:butt" />
				</g>
				<g
   id="shape14316-15"
   transform="translate(33.315)">
					<title
   id="title40">Sheet.14316</title>
					<path
   d="M 2.97,95.06 9.77,81.75 H 0 L 9.07,64 H 22.24 L 12.04,77.31 H 23.38 L 4.1,96.17 1.83,97.28 Z"
   class="st5"
   id="path42"
   inkscape:connector-curvature="0"
   style="fill:#ff8c00;stroke:none;stroke-width:12.23999977;stroke-linecap:butt" />
				</g>
				<g
   id="shape14317-17"
   transform="translate(32.8819,-14.4197)">
					<title
   id="title45">Sheet.14317</title>
					<rect
   x="0"
   y="96.170197"
   width="10.2047"
   height="1.10921"
   class="st6"
   id="rect47"
   style="fill:#ff8c00;fill-opacity:0.75;stroke:none;stroke-width:12.23999977;stroke-linecap:butt" />
				</g>
				<g
   id="shape14318-19"
   transform="translate(32.1812)">
					<title
   id="title50">Sheet.14318</title>
					<path
   d="M 2.97,95.06 9.77,81.75 H 0 L 9.07,64 H 22.24 L 12.04,77.31 H 23.38 L 4.1,96.17 1.83,97.28 Z"
   class="st7"
   id="path52"
   inkscape:connector-curvature="0"
   style="fill:#fcd116;stroke:none;stroke-width:12.23999977;stroke-linecap:butt" />
				</g>
			</g>
		</g>
	</g>
</svg>
